X:699
T:Sweet Molly
T:Hopetoun House
B:Kerr's Merry Melodies Book 1
Z:Nigel Gatherer
M:4/4
L:1/8
K:Em
B | E<EBE dEBe | dBAF DEFD | E<EBE dEBe  | dBAF B2 E :|
F | Eeef  gfed | BdBG DEFD | Eeef  gfed  | BdAF B2 EF |
    Eeef  gfed | BdBG DEFA | afge  fde^c | dBAF B2 E ||
<end>
<start>
